U-commodities/img/partners/green-privatbank.svg

<svg width="160" height="40" viewBox="0 0 160 40" fill="none" xmlns="http://www.w3.org/2000/svg">
<path fill-rule="evenodd" clip-rule="evenodd" d="M1.94385 17.9182V6.86523H24.657V29.5767H13.6049V27.2284C13.6049 21.0509 10.4716 17.9182 4.29211 17.9182H1.94385ZM19.9619 24.8816V11.5598H6.63895V13.3725C13.2284 14.1547 17.3681 18.2932 18.1503 24.8816H19.9619Z" fill="#8BB539"/>
<path d="M27.6834 29.538H31.5317V18.5755H37.6896V29.538H41.5371V15.9324H27.6834V29.538Z" fill="#8BB539"/>
<path fill-rule="evenodd" clip-rule="evenodd" d="M43.4034 33.1354V19.6647H46.7386L46.7156 20.8515H46.7853C48.1382 19.4323 49.7706 19.2962 50.6112 19.2962C53.9458 19.2962 55.9986 21.3564 55.9986 24.6215C55.9986 27.7508 53.9231 29.9091 50.5409 29.9091C50.0743 29.9091 48.1382 29.8122 46.9498 28.5287V33.1354H43.4034ZM49.5617 21.279C48.4886 21.279 46.7853 21.823 46.7853 24.5824C46.7853 26.2936 47.4859 27.9269 49.5617 27.9269C51.591 27.9269 52.3136 26.2936 52.3136 24.5824C52.3136 21.823 50.6112 21.279 49.5617 21.279Z" fill="#8BB539"/>
<path d="M64.7914 28.3541C63.4859 29.5777 62.2279 29.9088 60.8272 29.9088C57.0021 29.9088 56.8615 27.0318 56.8615 25.8465V19.6644H60.407V25.3793C60.407 27.3431 61.0851 27.9265 62.3901 27.9265C64.6281 27.9265 64.7914 25.9242 64.7914 25.2049V19.6644H68.3383V29.5388H64.7914V28.3541Z" fill="#8BB539"/>
<path fill-rule="evenodd" clip-rule="evenodd" d="M69.8766 29.5388V19.6644H76.9435C78.0398 19.6644 80.8391 19.6644 80.8391 22.056C80.8391 23.3967 79.719 24.1939 78.4359 24.3689V24.4275C80.394 24.7771 81.2582 25.4572 81.2582 27.0122C81.2582 29.0336 79.486 29.5388 76.9206 29.5388H69.8766ZM75.5915 25.3793H73.4221V27.5568H75.6354C77.3855 27.5568 77.6197 26.9734 77.6197 26.5462C77.6197 25.885 77.2696 25.3793 75.5915 25.3793ZM75.3332 21.6481H73.4221V23.5334H75.2635C75.8464 23.5334 77.1987 23.5141 77.1987 22.6191C77.1987 21.8034 76.3366 21.6481 75.3332 21.6481Z" fill="#8BB539"/>
<path fill-rule="evenodd" clip-rule="evenodd" d="M85.7369 22.853C85.7369 21.3952 87.2761 21.279 87.9063 21.279C88.3032 21.279 89.7715 21.2986 89.8194 22.5811V22.853C89.7652 23.6047 89.1947 23.6588 87.7306 23.7976C87.3018 23.8382 86.7964 23.8861 86.205 23.9609C84.0578 24.2524 81.7954 24.7961 81.7954 27.0517C81.7954 27.8682 82.1455 29.9091 85.9241 29.9091C87.3711 29.9091 88.9573 29.5392 89.8886 28.5679H89.9606L90.2625 29.5392H93.994V29.3648C93.3178 29.2284 93.271 28.5679 93.294 27.4985L93.364 22.9885C93.3878 21.8426 93.271 19.2962 87.9301 19.2962C86.647 19.2962 82.5186 19.4124 82.3553 22.853H85.7369ZM89.8424 25.4576C89.8424 27.4404 88.1161 27.9269 87.2543 27.9269C86.5999 27.9269 85.4339 27.7123 85.4339 26.7798C85.4339 25.6713 86.7629 25.4576 87.5103 25.3603C87.7159 25.3312 87.8882 25.3078 88.0361 25.2877C88.8779 25.1734 88.9297 25.1663 89.8424 24.8353V25.4576Z" fill="#8BB539"/>
<path d="M93.7585 19.6644V21.6481H97.677V29.5388H101.222V21.6481H105.14V19.6644H93.7585Z" fill="#8BB539"/>
<path fill-rule="evenodd" clip-rule="evenodd" d="M109.668 18.5755H118.507V15.9324H105.818V29.538H113.609C117.388 29.538 119.812 28.2171 119.812 25.4368C119.812 21.0836 114.962 20.9858 113.609 20.9858H109.668V18.5755ZM109.668 23.6295H112.862C113.798 23.6295 115.662 23.727 115.662 25.3591C115.662 26.6422 114.308 26.8946 112.793 26.8946H109.668V23.6295Z" fill="#8BB539"/>
<path fill-rule="evenodd" clip-rule="evenodd" d="M126.599 21.279C125.971 21.279 124.431 21.3952 124.431 22.853H121.048C121.211 19.4124 125.341 19.2962 126.622 19.2962C131.964 19.2962 132.081 21.8426 132.057 22.9885L131.988 27.4985C131.964 28.5679 132.013 29.2284 132.687 29.3648V29.5392H128.955L128.651 28.5679H128.582C127.649 29.5392 126.063 29.9091 124.617 29.9091C120.838 29.9091 120.489 27.8682 120.489 27.0517C120.489 24.7961 122.751 24.2524 124.896 23.9609C125.488 23.8862 125.993 23.8383 126.422 23.7976C127.888 23.6588 128.458 23.6048 128.513 22.853V22.5811C128.466 21.2986 126.996 21.279 126.599 21.279ZM125.947 27.9269C126.809 27.9269 128.535 27.4404 128.535 25.4576V24.8353C127.622 25.1663 127.571 25.1734 126.728 25.2877C126.58 25.3078 126.408 25.3312 126.202 25.3603C125.456 25.4576 124.128 25.6713 124.128 26.7798C124.128 27.7123 125.294 27.9269 125.947 27.9269Z" fill="#8BB539"/>
<path d="M137.119 29.5388H133.573V19.6644H137.119V23.3774H141.388V19.6644H144.933V29.5388H141.388V25.36H137.119V29.5388Z" fill="#8BB539"/>
<path d="M157.829 19.6644H153.888L150.086 23.6303H150.017V19.6644H146.472V29.5388H150.017V25.2242H150.086L153.91 29.5388H158.063L152.955 24.2903L157.829 19.6644Z" fill="#8BB539"/>
<path d="M1.93555 29.5745H10.8157V20.6943H1.93555V29.5745Z" fill="#8BB539"/>
</svg>

<svg width="160" height="40" fill="none" xmlns="http://www.w3.org/2000/svg"><path fill-rule="evenodd" clip-rule="evenodd" d="M1.944 17.918V6.865h22.713v22.712H13.605v-2.349c0-6.177-3.133-9.31-9.313-9.31H1.944zm18.018 6.964V11.56H6.639v1.813c6.59.782 10.73 4.92 11.511 11.509h1.812z" fill="#8BB539"/><path d="M27.683 29.538h3.849V18.576h6.158v10.962h3.847V15.932H27.683v13.606z" fill="#8BB539"/><path fill-rule="evenodd" clip-rule="evenodd" d="M43.403 33.135v-13.47h3.336l-.023 1.187h.07c1.352-1.42 2.985-1.556 3.825-1.556 3.335 0 5.388 2.06 5.388 5.326 0 3.129-2.076 5.287-5.458 5.287-.467 0-2.403-.097-3.591-1.38v4.606h-3.547zm6.159-11.856c-1.073 0-2.777.544-2.777 3.303 0 1.712.7 3.345 2.777 3.345 2.029 0 2.752-1.633 2.752-3.345 0-2.759-1.703-3.303-2.752-3.303z" fill="#8BB539"/><path d="M64.791 28.354c-1.305 1.224-2.563 1.555-3.964 1.555-3.825 0-3.965-2.877-3.965-4.063v-6.182h3.545v5.715c0 1.964.678 2.547 1.983 2.547 2.238 0 2.401-2.002 2.401-2.721v-5.54h3.547v9.874h-3.547v-1.185z" fill="#8BB539"/><path fill-rule="evenodd" clip-rule="evenodd" d="M69.877 29.539v-9.875h7.067c1.096 0 3.895 0 3.895 2.392 0 1.34-1.12 2.138-2.403 2.313v.058c1.958.35 2.822 1.03 2.822 2.585 0 2.022-1.772 2.527-4.337 2.527h-7.044zm5.715-4.16h-2.17v2.178h2.213c1.75 0 1.985-.584 1.985-1.01 0-.662-.35-1.168-2.029-1.168zm-.259-3.73h-1.91v1.884h1.84c.583 0 1.936-.019 1.936-.914 0-.816-.862-.97-1.866-.97zm10.404 1.204c0-1.458 1.54-1.574 2.17-1.574.396 0 1.865.02 1.912 1.302v.272c-.054.752-.624.806-2.088.945-.43.04-.935.088-1.526.163-2.147.291-4.41.835-4.41 3.09 0 .817.35 2.858 4.13 2.858 1.446 0 3.032-.37 3.964-1.341h.072l.302.971h3.731v-.174c-.676-.137-.723-.797-.7-1.866l.07-4.51c.024-1.146-.093-3.693-5.434-3.693-1.283 0-5.411.116-5.575 3.557h3.382zm4.105 2.605c0 1.982-1.726 2.469-2.588 2.469-.654 0-1.82-.215-1.82-1.147 0-1.109 1.329-1.322 2.076-1.42l.526-.072c.842-.115.894-.122 1.806-.453v.623z" fill="#8BB539"/><path d="M93.758 19.664v1.984h3.919v7.89h3.545v-7.89h3.918v-1.984H93.758z" fill="#8BB539"/><path fill-rule="evenodd" clip-rule="evenodd" d="M109.668 18.576h8.839v-2.644h-12.689v13.606h7.791c3.779 0 6.203-1.32 6.203-4.101 0-4.353-4.85-4.451-6.203-4.451h-3.941v-2.41zm0 5.053h3.194c.936 0 2.8.098 2.8 1.73 0 1.283-1.354 1.536-2.869 1.536h-3.125V23.63zm16.931-2.35c-.628 0-2.168.116-2.168 1.574h-3.383c.163-3.44 4.293-3.557 5.574-3.557 5.342 0 5.459 2.547 5.435 3.692l-.069 4.51c-.024 1.07.025 1.73.699 1.867v.174h-3.732l-.304-.971h-.069c-.933.971-2.519 1.341-3.965 1.341-3.779 0-4.128-2.04-4.128-2.857 0-2.256 2.262-2.8 4.407-3.091a44.597 44.597 0 011.526-.163c1.466-.14 2.036-.193 2.091-.945v-.272c-.047-1.282-1.517-1.302-1.914-1.302zm-.652 6.648c.862 0 2.588-.487 2.588-2.47v-.622c-.913.331-.964.338-1.807.453l-.526.072c-.746.098-2.074.311-2.074 1.42 0 .932 1.166 1.147 1.819 1.147z" fill="#8BB539"/><path d="M137.119 29.539h-3.546v-9.875h3.546v3.713h4.269v-3.713h3.545v9.875h-3.545V25.36h-4.269v4.179zm20.71-9.875h-3.941l-3.802 3.966h-.069v-3.966h-3.545v9.875h3.545v-4.315h.069l3.824 4.315h4.153l-5.108-5.249 4.874-4.626zM1.936 29.575h8.88v-8.88h-8.88v8.88z" fill="#8BB539"/></svg>
